ui/StatusQ/src/assets/img/icons/text.svg

<svg fill="none" height="24" viewBox="0 0 24 24" width="24" xmlns="http://www.w3.org/2000/svg"><g fill="#000"><path d="m4 15.25c-.41421 0-.75.3358-.75.75s.33579.75.75.75h8c.4142 0 .75-.3358.75-.75s-.3358-.75-.75-.75z"/><path d="m3.25 12c0-.4142.33579-.75.75-.75h12c.4142 0 .75.3358.75.75s-.3358.75-.75.75h-12c-.41421 0-.75-.3358-.75-.75z"/><path d="m3.25 8c0-.41421.33579-.75.75-.75h16c.4142 0 .75.33579.75.75s-.3358.75-.75.75h-16c-.41421 0-.75-.33579-.75-.75z"/></g></svg>

<svg width="24" height="24" viewBox="0 0 24 24" fill="none" xmlns="http://www.w3.org/2000/svg">
<path d="M4 15.25C3.58579 15.25 3.25 15.5858 3.25 16C3.25 16.4142 3.58579 16.75 4 16.75H12C12.4142 16.75 12.75 16.4142 12.75 16C12.75 15.5858 12.4142 15.25 12 15.25H4Z" fill="black"/>
<path d="M3.25 12C3.25 11.5858 3.58579 11.25 4 11.25H16C16.4142 11.25 16.75 11.5858 16.75 12C16.75 12.4142 16.4142 12.75 16 12.75H4C3.58579 12.75 3.25 12.4142 3.25 12Z" fill="black"/>
<path d="M3.25 8C3.25 7.58579 3.58579 7.25 4 7.25H20C20.4142 7.25 20.75 7.58579 20.75 8C20.75 8.41421 20.4142 8.75 20 8.75H4C3.58579 8.75 3.25 8.41421 3.25 8Z" fill="black"/>
</svg>
